X:1
T:Silent Night
T:SATB - traditional caroling arrangement
T:Franz Gruber (1818)
T:Joseph Mohr (1818)
T:Public domain
Z:Public domain
%%score 1 2 3 4
L:1/8
Q:1/4=60
M:6/8
K:C
V:1 treble nm="Soprano" snm="S."
V:2 treble nm="Alto" snm="A."
V:3 bass nm="Tenor" snm="T."
V:4 bass nm="Bass" snm="B."
V:1
"^Slow" G>AG E3 | G>AG E3 | d2 d B3 | c2 c G3 | A2 A (c>B)A | (G>A)G E3 | A2 A (c>B)A | (G>A)G E3 | %8
 d2 d f>dB | (c3 e3) | c>GE G>FD | C3- C2 z |] %12
V:2
 E>FE C3 | E>FE C3 | F2 F F3 | E2 E E3 | F2 F (A>G)F | (E>F)E C3 | C2 F A>GF | E>FE C3 | %8
 F2 F G>FF | (E3 G3) | E2 C B,>B,B, | C3- C2 z |] %12
V:3
 C2 C G,3 | C2 C G,3 | B,2 B, D3 | C2 G, C3 | C2 C E->EC | C->CC G,3 | F,2 C F->FC | C->CC G,3 | %8
 B,2 B, D>B,D | C3- C3 | G,2 G, G,>G,F, | E,3- E,2 z |] %12
V:4
 C,2 C, C,3 | C,2 C, C,3 | G,2 G, G,3 | C,2 C, C,3 | F,2 F, F,->F,F, | C,->C,C, C,3 | %6
 F,2 F, F,>F,F, | C,>C,C, C,3 | G,2 G, B,>G,G, | C,3- C,3 | C,2 C, G,,>G,,G,, | C,3- C,2 z |] %12

